X: 1
T: Murray River, The
M: 6/8
L: 1/8
R: jig
K: Gmaj
|: A | 
B2 B B>AG | D3 D>GA | B2 B c>BA | E3 E>AB |c2 c c>BA |
f2 f f2 e |1 e>dd d>^cd | e>dc B>G :|2 d>ed c>BA | G3 G2 ||
|: c | 
B>GG G>A_B | A>=FF F2 E | D>GG G>FG | A>dd d2 c |
B>GG G>A_B | A>=FF F2 E | D>GG F>GA | B>GG G2 :|
